build/img/icon-tw.svg

<svg width="24" height="24" viewBox="0 0 24 24" fill="none" xmlns="http://www.w3.org/2000/svg">
<path d="M12.0005 0.480469C5.63807 0.480469 0.480469 5.63807 0.480469 12.0005C0.480469 18.3629 5.63807 23.5205 12.0005 23.5205C18.3629 23.5205 23.5205 18.3629 23.5205 12.0005C23.5205 5.63807 18.3629 0.480469 12.0005 0.480469ZM16.6865 9.91727C16.6913 10.0157 16.6925 10.1141 16.6925 10.2101C16.6925 13.2101 14.4113 16.6673 10.2377 16.6673C9.00442 16.6693 7.79683 16.3151 6.76007 15.6473C6.93647 15.6689 7.11767 15.6773 7.30127 15.6773C8.36447 15.6773 9.34247 15.3161 10.1189 14.7065C9.64573 14.6972 9.18727 14.5405 8.8074 14.2583C8.42753 13.9761 8.14517 13.5824 7.99967 13.1321C8.33946 13.1967 8.68949 13.1831 9.02327 13.0925C8.50973 12.9886 8.04791 12.7104 7.71612 12.3049C7.38433 11.8994 7.203 11.3916 7.20287 10.8677V10.8401C7.50887 11.0093 7.85927 11.1125 8.23127 11.1245C7.74983 10.804 7.40901 10.3117 7.27852 9.74823C7.14803 9.18478 7.23773 8.59277 7.52927 8.09327C8.09921 8.79407 8.80998 9.36736 9.61555 9.77604C10.4211 10.1847 11.3035 10.4197 12.2057 10.4657C12.091 9.97884 12.1403 9.46776 12.3461 9.01187C12.5518 8.55599 12.9024 8.18086 13.3434 7.94479C13.7843 7.70871 14.2909 7.62494 14.7843 7.70647C15.2778 7.78801 15.7305 8.0303 16.0721 8.39567C16.5799 8.2952 17.0668 8.10893 17.5121 7.84487C17.3428 8.37063 16.9885 8.81708 16.5149 9.10127C16.9647 9.04709 17.4039 8.92616 17.8181 8.74247C17.5139 9.19834 17.1306 9.59619 16.6865 9.91727Z" fill="white"/>
</svg>

<svg width="24" height="24" fill="none" xmlns="http://www.w3.org/2000/svg"><path d="M12 .48C5.639.48.48 5.638.48 12c0 6.363 5.158 11.52 11.52 11.52 6.363 0 11.52-5.157 11.52-11.52C23.52 5.639 18.363.48 12 .48zm4.686 9.437c.005.099.006.197.006.293 0 3-2.28 6.457-6.454 6.457a6.403 6.403 0 01-3.478-1.02c.176.022.358.03.541.03a4.544 4.544 0 002.818-.97 2.274 2.274 0 01-2.12-1.575c.34.065.69.051 1.024-.04a2.27 2.27 0 01-1.82-2.224v-.028c.306.17.656.273 1.028.284a2.268 2.268 0 01-.702-3.03 6.451 6.451 0 004.677 2.372 2.269 2.269 0 013.866-2.07c.508-.1.995-.287 1.44-.551a2.28 2.28 0 01-.997 1.256 4.56 4.56 0 001.303-.359 4.602 4.602 0 01-1.132 1.175z" fill="#fff"/></svg>
